Newaita/actions/32/hint.svg

<svg height="32" viewBox="0 0 32 32" width="32" xmlns="http://www.w3.org/2000/svg"><g fill="#424242"><path d="m15.875 8.1875c-.152344 0-.308594.003906-.460938.015625-5.875.171875-10.917968 3.664063-13.292968 8.683594-.207032.425781-.171875.933593.097656 1.324219.265625.394531.726562.609374 1.199219.570312.472656-.042969.890625-.335938 1.085937-.769531.90625-1.917969 2.28125-3.570313 3.984375-4.800781-.355469.902343-.550781 1.882812-.550781 2.914062 0 2.214844.898438 4.214844 2.351562 5.652344l1.394532-2.414063c-.691406-.894531-1.097656-2.015625-1.097656-3.238281 0-2.929688 2.359374-5.289062 5.289062-5.289062.242188 0 .476562.015624.707031.042968l1.460938-2.53125c-.558594-.078125-1.128907-.128906-1.707031-.144531-.152344-.011719-.304688-.015625-.460938-.015625zm6.183594 1.3125-1.972656 3.414062c.679687.890626 1.082031 2.003907 1.082031 3.210938 0 2.933594-2.359375 5.292969-5.292969 5.292969-.226562 0-.453125-.011719-.671875-.042969l-1.398437 2.417969c.660156.175781 1.355468.273437 2.070312.273437 4.398438 0 7.941406-3.542968 7.941406-7.941406 0-1.03125-.195312-2.011719-.550781-2.914062 1.699219 1.230468 3.078125 2.882812 3.984375 4.800781.195312.433593.609375.726562 1.085938.769531.472656.039062.929687-.175781 1.199218-.570312.269532-.390626.304688-.898438.09375-1.324219-1.550781-3.285157-4.246094-5.914063-7.570312-7.386719zm-7.0625 4.121094c-1.03125.347656-1.765625 1.285156-1.765625 2.398437v.214844c0 .132813.011719.265625.03125.394531zm3.5 2.046875-1.699219 2.949219c1.007813-.359376 1.726563-1.285157 1.726563-2.382813v-.214844c0-.121093-.007813-.238281-.027344-.351562zm0 0"/><path d="m22.839844 3.332031.65625.378907c.160156.09375.214844.296874.121094.453124l-14.222657 24.632813c-.089843.160156-.292969.214844-.449219.121094l-.65625-.378907c-.160156-.089843-.214843-.292968-.121093-.449218l14.222656-24.636719c.089844-.15625.292969-.210937.449219-.121094zm0 0"/></g></svg>

<svg xmlns="http://www.w3.org/2000/svg" xmlns:xlink="http://www.w3.org/1999/xlink" width="32px" height="32px" viewBox="0 0 32 32" version="1.1">
<g id="surface1">
     <defs>
  <style id="current-color-scheme" type="text/css">
   .ColorScheme-Text { color:#424242; } .ColorScheme-Highlight { color:#eeeeee; }
  </style>
 </defs>
<path style="fill:currentColor" class="ColorScheme-Text" d="M 15.875 8.1875 C 15.722656 8.1875 15.566406 8.191406 15.414062 8.203125 C 9.539062 8.375 4.496094 11.867188 2.121094 16.886719 C 1.914062 17.3125 1.949219 17.820312 2.21875 18.210938 C 2.484375 18.605469 2.945312 18.820312 3.417969 18.78125 C 3.890625 18.738281 4.308594 18.445312 4.503906 18.011719 C 5.410156 16.09375 6.785156 14.441406 8.488281 13.210938 C 8.132812 14.113281 7.9375 15.09375 7.9375 16.125 C 7.9375 18.339844 8.835938 20.339844 10.289062 21.777344 L 11.683594 19.363281 C 10.992188 18.46875 10.585938 17.347656 10.585938 16.125 C 10.585938 13.195312 12.945312 10.835938 15.875 10.835938 C 16.117188 10.835938 16.351562 10.851562 16.582031 10.878906 L 18.042969 8.347656 C 17.484375 8.269531 16.914062 8.21875 16.335938 8.203125 C 16.183594 8.191406 16.03125 8.1875 15.875 8.1875 Z M 22.058594 9.5 L 20.085938 12.914062 C 20.765625 13.804688 21.167969 14.917969 21.167969 16.125 C 21.167969 19.058594 18.808594 21.417969 15.875 21.417969 C 15.648438 21.417969 15.421875 21.40625 15.203125 21.375 L 13.804688 23.792969 C 14.464844 23.96875 15.160156 24.066406 15.875 24.066406 C 20.273438 24.066406 23.816406 20.523438 23.816406 16.125 C 23.816406 15.09375 23.621094 14.113281 23.265625 13.210938 C 24.964844 14.441406 26.34375 16.09375 27.25 18.011719 C 27.445312 18.445312 27.859375 18.738281 28.335938 18.78125 C 28.808594 18.820312 29.265625 18.605469 29.535156 18.210938 C 29.804688 17.820312 29.839844 17.3125 29.628906 16.886719 C 28.078125 13.601562 25.382812 10.972656 22.058594 9.5 Z M 14.996094 13.621094 C 13.964844 13.96875 13.230469 14.90625 13.230469 16.019531 L 13.230469 16.234375 C 13.230469 16.367188 13.242188 16.5 13.261719 16.628906 Z M 18.496094 15.667969 L 16.796875 18.617188 C 17.804688 18.257812 18.523438 17.332031 18.523438 16.234375 L 18.523438 16.019531 C 18.523438 15.898438 18.515625 15.78125 18.496094 15.667969 Z M 18.496094 15.667969 "/>
     <defs>
  <style id="current-color-scheme" type="text/css">
   .ColorScheme-Text { color:#424242; } .ColorScheme-Highlight { color:#eeeeee; }
  </style>
 </defs>
<path style="fill:currentColor" class="ColorScheme-Text" d="M 22.839844 3.332031 L 23.496094 3.710938 C 23.65625 3.804688 23.710938 4.007812 23.617188 4.164062 L 9.394531 28.796875 C 9.304688 28.957031 9.101562 29.011719 8.945312 28.917969 L 8.289062 28.539062 C 8.128906 28.449219 8.074219 28.246094 8.167969 28.089844 L 22.390625 3.453125 C 22.480469 3.296875 22.683594 3.242188 22.839844 3.332031 Z M 22.839844 3.332031 "/>
</g>
</svg>
